; generated by PrusaSlicer 2.5.0+win64 on 2022-11-11 at 11:59:28 UTC

; 

; external perimeters extrusion width = 0.45mm
; perimeters extrusion width = 0.45mm
; infill extrusion width = 0.45mm
; solid infill extrusion width = 0.45mm
; top infill extrusion width = 0.40mm
; support material extrusion width = 0.38mm
; first layer extrusion width = 0.42mm

; external perimeters extrusion width = 0.45mm
; perimeters extrusion width = 0.45mm
; infill extrusion width = 0.45mm
; solid infill extrusion width = 0.45mm
; top infill extrusion width = 0.40mm
; support material extrusion width = 0.38mm
; first layer extrusion width = 0.42mm

M107
;TYPE:Custom
G90 ; use absolute coordinates
M83 ; extruder relative mode
M140 S60 ; set final bed temp
M104 S150 ; set temporary nozzle temp to prevent oozing during homing
G4 S10 ; allow partial nozzle warmup
G28 ; home all axis
G1 Z50 F240
G1 X2 Y10 F3000
M104 S210 ; set final nozzle temp
M190 S60 ; wait for bed temp to stabilize
M109 S210 ; wait for nozzle temp to stabilize
G1 Z0.28 F240
G92 E0
G1 Y140 E10 F1500 ; prime the nozzle
G1 X2.3 F5000
G92 E0
G1 Y10 E10 F1200 ; prime the nozzle
G92 E0
G21 ; set units to millimeters
G90 ; use absolute coordinates
M83 ; use relative distances for extrusion
; Filament gcode
M107
;LAYER_CHANGE
;Z:0.2
;HEIGHT:0.2
;BEFORE_LAYER_CHANGE
G92 E0
;0.2


G1 E-5 F3600
G1 Z.2 F9000
;AFTER_LAYER_CHANGE
;0.2
G1 X67.76 Y78.224
G1 E5 F2400
M204 S500
;TYPE:Skirt/Brim
;WIDTH:0.42
G1 F1200
G1 X69.653 Y77.644 E.06207
G1 X146.347 Y77.644 E2.4047
G1 X147.93 Y78.038 E.05115
G1 X149.144 Y79.128 E.05115
G1 X149.724 Y81.021 E.06207
G1 X149.724 Y115.262 E1.0736
G1 X149.33 Y116.845 E.05115
G1 X148.291 Y118.023 E.04926
G1 X125.12 Y134.333 E.88843
G1 X124.283 Y134.826 E.03046
G1 X123.253 Y135.252 E.03495
G1 X122.554 Y135.444 E.02272
G1 X120.954 Y135.622 E.05049
G1 X96.954 Y135.622 E.7525
G1 X96.068 Y135.547 E.02787
G1 X95.236 Y135.339 E.0269
G1 X94.031 Y134.758 E.04193
G1 X67.841 Y118.112 E.973
G1 X66.717 Y116.93 E.05115
G1 X66.276 Y115.262 E.0541
G1 X66.276 Y81.021 E1.0736
G1 X66.67 Y79.438 E.05115
G1 X67.72 Y78.269 E.04927
G1 E-3.5 F3600
;WIPE_START
G1 F7200
G1 X69.653 Y77.644 E-.96489
G1 X70.621 Y77.644 E-.46011
;WIPE_END
G1 E-.075 F3600
G1 X146.347 Y115.262 F9000
G1 E5 F2400
;TYPE:Support material
G1 F1200
G1 X143.48 Y115.262 E.0899
G1 X143.48 Y110.301 E.15554
G1 X143.199 Y110.02 E.01247
G1 X111.634 Y110.02 E.98968
G1 X111.353 Y110.301 E.01247
G1 X111.353 Y113.32 E.09465
G1 X104.647 Y113.32 E.21028
G1 X104.647 Y110.301 E.09465
G1 X104.366 Y110.02 E.01247
G1 X72.801 Y110.02 E.98968
G1 X72.52 Y110.301 E.01247
G1 X72.52 Y115.262 E.15554
G1 X69.653 Y115.262 E.0899
G1 X69.653 Y81.021 E1.0736
G1 X146.347 Y81.021 E2.4047
G1 X146.347 Y115.205 E1.07182
G1 X145.708 Y115.092 F9000
G1 F1200
G1 X145.708 Y81.36 E1.05764
G1 X145.289 Y81.36 E.01314
G1 X145.289 Y114.923 E1.05232
G1 X144.87 Y114.923 E.01314
G1 X144.87 Y81.36 E1.05232
G1 X144.451 Y81.36 E.01314
G1 X144.451 Y114.923 E1.05232
G1 X144.032 Y114.923 E.01314
G1 X144.032 Y81.36 E1.05232
G1 X143.613 Y81.36 E.01314
G1 X143.613 Y109.954 E.89654
G1 X143.339 Y109.681 E.01213
G1 X143.194 Y109.681 E.00456
G1 X143.194 Y81.36 E.88796
G1 X142.775 Y81.36 E.01314
G1 X142.775 Y109.681 E.88796
G1 X142.356 Y109.681 E.01314
G1 X142.356 Y81.36 E.88796
G1 X141.937 Y81.36 E.01314
G1 X141.937 Y109.681 E.88796
G1 X141.518 Y109.681 E.01314
G1 X141.518 Y81.36 E.88796
G1 X141.099 Y81.36 E.01314
G1 X141.099 Y109.681 E.88796
G1 X140.68 Y109.681 E.01314
G1 X140.68 Y81.36 E.88796
G1 X140.261 Y81.36 E.01314
G1 X140.261 Y109.681 E.88796
G1 X139.842 Y109.681 E.01314
G1 X139.842 Y81.36 E.88796
G1 X139.423 Y81.36 E.01314
G1 X139.423 Y109.681 E.88796
G1 X139.004 Y109.681 E.01314
G1 X139.004 Y81.36 E.88796
G1 X138.585 Y81.36 E.01314
G1 X138.585 Y109.681 E.88796
G1 X138.166 Y109.681 E.01314
G1 X138.166 Y81.36 E.88796
G1 X137.747 Y81.36 E.01314
G1 X137.747 Y109.681 E.88796
G1 X137.328 Y109.681 E.01314
G1 X137.328 Y81.36 E.88796
G1 X136.909 Y81.36 E.01314
G1 X136.909 Y109.681 E.88796
G1 X136.49 Y109.681 E.01314
G1 X136.49 Y81.36 E.88796
G1 X136.071 Y81.36 E.01314
G1 X136.071 Y109.681 E.88796
G1 X135.652 Y109.681 E.01314
G1 X135.652 Y81.36 E.88796
G1 X135.234 Y81.36 E.01314
G1 X135.234 Y109.681 E.88796
G1 X134.815 Y109.681 E.01314
G1 X134.815 Y81.36 E.88796
G1 X134.396 Y81.36 E.01314
G1 X134.396 Y109.681 E.88796
G1 X133.977 Y109.681 E.01314
G1 X133.977 Y81.36 E.88796
G1 X133.558 Y81.36 E.01314
G1 X133.558 Y109.681 E.88796
G1 X133.139 Y109.681 E.01314
G1 X133.139 Y81.36 E.88796
G1 X132.72 Y81.36 E.01314
G1 X132.72 Y109.681 E.88796
G1 X132.301 Y109.681 E.01314
G1 X132.301 Y81.36 E.88796
G1 X131.882 Y81.36 E.01314
G1 X131.882 Y109.681 E.88796
G1 X131.463 Y109.681 E.01314
G1 X131.463 Y81.36 E.88796
G1 X131.044 Y81.36 E.01314
G1 X131.044 Y109.681 E.88796
G1 X130.625 Y109.681 E.01314
G1 X130.625 Y81.36 E.88796
G1 X130.206 Y81.36 E.01314
G1 X130.206 Y109.681 E.88796
G1 X129.787 Y109.681 E.01314
G1 X129.787 Y81.36 E.88796
G1 X129.368 Y81.36 E.01314
G1 X129.368 Y109.681 E.88796
G1 X128.949 Y109.681 E.01314
G1 X128.949 Y81.36 E.88796
G1 X128.53 Y81.36 E.01314
G1 X128.53 Y109.681 E.88796
G1 X128.111 Y109.681 E.01314
G1 X128.111 Y81.36 E.88796
G1 X127.692 Y81.36 E.01314
G1 X127.692 Y109.681 E.88796
G1 X127.273 Y109.681 E.01314
G1 X127.273 Y81.36 E.88796
G1 X126.854 Y81.36 E.01314
G1 X126.854 Y109.681 E.88796
G1 X126.435 Y109.681 E.01314
G1 X126.435 Y81.36 E.88796
G1 X126.016 Y81.36 E.01314
G1 X126.016 Y109.681 E.88796
G1 X125.597 Y109.681 E.01314
G1 X125.597 Y81.36 E.88796
G1 X125.178 Y81.36 E.01314
G1 X125.178 Y109.681 E.88796
G1 X124.759 Y109.681 E.01314
G1 X124.759 Y81.36 E.88796
G1 X124.34 Y81.36 E.01314
G1 X124.34 Y109.681 E.88796
G1 X123.921 Y109.681 E.01314
G1 X123.921 Y81.36 E.88796
G1 X123.502 Y81.36 E.01314
G1 X123.502 Y109.681 E.88796
G1 X123.083 Y109.681 E.01314
G1 X123.083 Y81.36 E.88796
G1 X122.664 Y81.36 E.01314
G1 X122.664 Y109.681 E.88796
G1 X122.245 Y109.681 E.01314
G1 X122.245 Y81.36 E.88796
G1 X121.826 Y81.36 E.01314
G1 X121.826 Y109.681 E.88796
G1 X121.407 Y109.681 E.01314
G1 X121.407 Y81.36 E.88796
G1 X120.988 Y81.36 E.01314
G1 X120.988 Y109.681 E.88796
G1 X120.569 Y109.681 E.01314
G1 X120.569 Y81.36 E.88796
G1 X120.15 Y81.36 E.01314
G1 X120.15 Y109.681 E.88796
G1 X119.731 Y109.681 E.01314
G1 X119.731 Y81.36 E.88796
G1 X119.312 Y81.36 E.01314
G1 X119.312 Y109.681 E.88796
G1 X118.893 Y109.681 E.01314
G1 X118.893 Y81.36 E.88796
G1 X118.474 Y81.36 E.01314
G1 X118.474 Y109.681 E.88796
G1 X118.055 Y109.681 E.01314
G1 X118.055 Y81.36 E.88796
G1 X117.636 Y81.36 E.01314
G1 X117.636 Y109.681 E.88796
G1 X117.217 Y109.681 E.01314
G1 X117.217 Y81.36 E.88796
G1 X116.799 Y81.36 E.01314
G1 X116.799 Y109.681 E.88796
G1 X116.38 Y109.681 E.01314
G1 X116.38 Y81.36 E.88796
G1 X115.961 Y81.36 E.01314
G1 X115.961 Y109.681 E.88796
G1 X115.542 Y109.681 E.01314
G1 X115.542 Y81.36 E.88796
G1 X115.123 Y81.36 E.01314
G1 X115.123 Y109.681 E.88796
G1 X114.704 Y109.681 E.01314
G1 X114.704 Y81.36 E.88796
G1 X114.285 Y81.36 E.01314
G1 X114.285 Y109.681 E.88796
G1 X113.866 Y109.681 E.01314
G1 X113.866 Y81.36 E.88796
G1 X113.447 Y81.36 E.01314
G1 X113.447 Y109.681 E.88796
G1 X113.028 Y109.681 E.01314
G1 X113.028 Y81.36 E.88796
G1 X112.609 Y81.36 E.01314
G1 X112.609 Y109.681 E.88796
G1 X112.19 Y109.681 E.01314
G1 X112.19 Y81.36 E.88796
G1 X111.771 Y81.36 E.01314
G1 X111.771 Y109.681 E.88796
G1 X111.494 Y109.681 E.00868
G1 X111.352 Y109.823 E.0063
G1 X111.352 Y81.36 E.89242
G1 X110.933 Y81.36 E.01314
G1 X110.933 Y112.981 E.99143
G1 X110.514 Y112.981 E.01314
G1 X110.514 Y81.36 E.99143
G1 X110.095 Y81.36 E.01314
G1 X110.095 Y112.981 E.99143
G1 X109.676 Y112.981 E.01314
G1 X109.676 Y81.36 E.99143
G1 X109.257 Y81.36 E.01314
G1 X109.257 Y112.981 E.99143
G1 X108.838 Y112.981 E.01314
G1 X108.838 Y81.36 E.99143
G1 X108.419 Y81.36 E.01314
G1 X108.419 Y112.981 E.99143
G1 X108 Y112.981 E.01314
G1 X108 Y81.36 E.99143
G1 X107.581 Y81.36 E.01314
G1 X107.581 Y112.981 E.99143
G1 X107.162 Y112.981 E.01314
G1 X107.162 Y81.36 E.99143
G1 X106.743 Y81.36 E.01314
G1 X106.743 Y112.981 E.99143
G1 X106.324 Y112.981 E.01314
G1 X106.324 Y81.36 E.99143
G1 X105.905 Y81.36 E.01314
G1 X105.905 Y112.981 E.99143
G1 X105.486 Y112.981 E.01314
G1 X105.486 Y81.36 E.99143
G1 X105.067 Y81.36 E.01314
G1 X105.067 Y112.981 E.99143
G1 X104.986 Y112.981 E.00254
G1 X104.986 Y110.161 E.08842
G1 X104.648 Y109.823 E.01499
G1 X104.648 Y81.36 E.89241
G1 X104.229 Y81.36 E.01314
G1 X104.229 Y109.681 E.88796
G1 X103.81 Y109.681 E.01314
G1 X103.81 Y81.36 E.88796
G1 X103.391 Y81.36 E.01314
G1 X103.391 Y109.681 E.88796
G1 X102.972 Y109.681 E.01314
G1 X102.972 Y81.36 E.88796
G1 X102.553 Y81.36 E.01314
G1 X102.553 Y109.681 E.88796
G1 X102.134 Y109.681 E.01314
G1 X102.134 Y81.36 E.88796
G1 X101.715 Y81.36 E.01314
G1 X101.715 Y109.681 E.88796
G1 X101.296 Y109.681 E.01314
G1 X101.296 Y81.36 E.88796
G1 X100.877 Y81.36 E.01314
G1 X100.877 Y109.681 E.88796
G1 X100.458 Y109.681 E.01314
G1 X100.458 Y81.36 E.88796
G1 X100.039 Y81.36 E.01314
G1 X100.039 Y109.681 E.88796
G1 X99.62 Y109.681 E.01314
G1 X99.62 Y81.36 E.88796
G1 X99.201 Y81.36 E.01314
G1 X99.201 Y109.681 E.88796
G1 X98.783 Y109.681 E.01314
G1 X98.783 Y81.36 E.88796
G1 X98.364 Y81.36 E.01314
G1 X98.364 Y109.681 E.88796
G1 X97.945 Y109.681 E.01314
G1 X97.945 Y81.36 E.88796
G1 X97.526 Y81.36 E.01314
G1 X97.526 Y109.681 E.88796
G1 X97.107 Y109.681 E.01314
G1 X97.107 Y81.36 E.88796
G1 X96.688 Y81.36 E.01314
G1 X96.688 Y109.681 E.88796
G1 X96.269 Y109.681 E.01314
G1 X96.269 Y81.36 E.88796
G1 X95.85 Y81.36 E.01314
G1 X95.85 Y109.681 E.88796
G1 X95.431 Y109.681 E.01314
G1 X95.431 Y81.36 E.88796
G1 X95.012 Y81.36 E.01314
G1 X95.012 Y109.681 E.88796
G1 X94.593 Y109.681 E.01314
G1 X94.593 Y81.36 E.88796
G1 X94.174 Y81.36 E.01314
G1 X94.174 Y109.681 E.88796
G1 X93.755 Y109.681 E.01314
G1 X93.755 Y81.36 E.88796
G1 X93.336 Y81.36 E.01314
G1 X93.336 Y109.681 E.88796
G1 X92.917 Y109.681 E.01314
G1 X92.917 Y81.36 E.88796
G1 X92.498 Y81.36 E.01314
G1 X92.498 Y109.681 E.88796
G1 X92.079 Y109.681 E.01314
G1 X92.079 Y81.36 E.88796
G1 X91.66 Y81.36 E.01314
G1 X91.66 Y109.681 E.88796
G1 X91.241 Y109.681 E.01314
G1 X91.241 Y81.36 E.88796
G1 X90.822 Y81.36 E.01314
G1 X90.822 Y109.681 E.88796
G1 X90.403 Y109.681 E.01314
G1 X90.403 Y81.36 E.88796
G1 X89.984 Y81.36 E.01314
G1 X89.984 Y109.681 E.88796
G1 X89.565 Y109.681 E.01314
G1 X89.565 Y81.36 E.88796
G1 X89.146 Y81.36 E.01314
G1 X89.146 Y109.681 E.88796
G1 X88.727 Y109.681 E.01314
G1 X88.727 Y81.36 E.88796
G1 X88.308 Y81.36 E.01314
G1 X88.308 Y109.681 E.88796
G1 X87.889 Y109.681 E.01314
G1 X87.889 Y81.36 E.88796
G1 X87.47 Y81.36 E.01314
G1 X87.47 Y109.681 E.88796
G1 X87.051 Y109.681 E.01314
G1 X87.051 Y81.36 E.88796
G1 X86.632 Y81.36 E.01314
G1 X86.632 Y109.681 E.88796
G1 X86.213 Y109.681 E.01314
G1 X86.213 Y81.36 E.88796
G1 X85.794 Y81.36 E.01314
G1 X85.794 Y109.681 E.88796
G1 X85.375 Y109.681 E.01314
G1 X85.375 Y81.36 E.88796
G1 X84.956 Y81.36 E.01314
G1 X84.956 Y109.681 E.88796
G1 X84.537 Y109.681 E.01314
G1 X84.537 Y81.36 E.88796
G1 X84.118 Y81.36 E.01314
G1 X84.118 Y109.681 E.88796
G1 X83.699 Y109.681 E.01314
G1 X83.699 Y81.36 E.88796
G1 X83.28 Y81.36 E.01314
G1 X83.28 Y109.681 E.88796
G1 X82.861 Y109.681 E.01314
G1 X82.861 Y81.36 E.88796
G1 X82.442 Y81.36 E.01314
G1 X82.442 Y109.681 E.88796
G1 X82.023 Y109.681 E.01314
G1 X82.023 Y81.36 E.88796
G1 X81.604 Y81.36 E.01314
G1 X81.604 Y109.681 E.88796
G1 X81.185 Y109.681 E.01314
G1 X81.185 Y81.36 E.88796
G1 X80.766 Y81.36 E.01314
G1 X80.766 Y109.681 E.88796
G1 X80.348 Y109.681 E.01314
G1 X80.348 Y81.36 E.88796
G1 X79.929 Y81.36 E.01314
G1 X79.929 Y109.681 E.88796
G1 X79.51 Y109.681 E.01314
G1 X79.51 Y81.36 E.88796
G1 X79.091 Y81.36 E.01314
G1 X79.091 Y109.681 E.88796
G1 X78.672 Y109.681 E.01314
G1 X78.672 Y81.36 E.88796
G1 X78.253 Y81.36 E.01314
G1 X78.253 Y109.681 E.88796
G1 X77.834 Y109.681 E.01314
G1 X77.834 Y81.36 E.88796
G1 X77.415 Y81.36 E.01314
G1 X77.415 Y109.681 E.88796
G1 X76.996 Y109.681 E.01314
G1 X76.996 Y81.36 E.88796
G1 X76.577 Y81.36 E.01314
G1 X76.577 Y109.681 E.88796
G1 X76.158 Y109.681 E.01314
G1 X76.158 Y81.36 E.88796
G1 X75.739 Y81.36 E.01314
G1 X75.739 Y109.681 E.88796
G1 X75.32 Y109.681 E.01314
G1 X75.32 Y81.36 E.88796
G1 X74.901 Y81.36 E.01314
G1 X74.901 Y109.681 E.88796
G1 X74.482 Y109.681 E.01314
G1 X74.482 Y81.36 E.88796
G1 X74.063 Y81.36 E.01314
G1 X74.063 Y109.681 E.88796
G1 X73.644 Y109.681 E.01314
G1 X73.644 Y81.36 E.88796
G1 X73.225 Y81.36 E.01314
G1 X73.225 Y109.681 E.88796
G1 X72.806 Y109.681 E.01314
G1 X72.806 Y81.36 E.88796
G1 X72.387 Y81.36 E.01314
G1 X72.387 Y109.954 E.89654
G1 X72.181 Y110.161 E.00915
G1 X72.181 Y114.923 E.14931
G1 X71.968 Y114.923 E.00667
G1 X71.968 Y81.36 E1.05232
G1 X71.549 Y81.36 E.01314
G1 X71.549 Y114.923 E1.05232
G1 X71.13 Y114.923 E.01314
G1 X71.13 Y81.36 E1.05232
G1 X70.711 Y81.36 E.01314
G1 X70.711 Y114.923 E1.05232
G1 X70.292 Y114.923 E.01314
G1 X70.292 Y81.191 E1.05764
G1 E-3.5 F3600
;WIPE_START
G1 F7200
G1 X70.292 Y84.191 E-1.425
;WIPE_END
G1 E-.075 F3600
G1 X112.726 Y114.436 F9000
G1 E5 F2400
;TYPE:Perimeter
;WIDTH:0.419999
G1 F1200
G1 X112.897 Y113.921 E.017
G1 X112.897 Y111.564 E.07391
G1 X141.936 Y111.564 E.91048
G1 X141.936 Y114.436 E.09004
G1 X112.786 Y114.436 E.91397
G1 E-3.5 F3600
;WIPE_START
G1 F7200
G1 X112.897 Y113.921 E-.25001
G1 X112.897 Y111.564 E-1.11971
G1 X113.014 Y111.564 E-.05528
;WIPE_END
G1 E-.075 F3600
G1 X103.274 Y114.436 F9000
G1 E5 F2400
G1 F1200
G1 X74.064 Y114.436 E.91585
G1 X74.064 Y111.564 E.09004
G1 X103.103 Y111.564 E.91048
G1 X103.103 Y113.921 E.07391
G1 X103.255 Y114.379 E.01512
G1 X103.512 Y114.017 F9000
G1 F1200
G1 X103.593 Y114.261 E.00805
G1 X104.045 Y114.474 E.01569
;WIDTH:0.394382
G1 X111.955 Y114.474 E.23115
;WIDTH:0.399902
G1 X112.051 Y114.469 E.00285
;WIDTH:0.419999
G1 X112.407 Y114.261 E.01294
G1 X112.52 Y113.921 E.01122
G1 X112.52 Y111.187 E.08573
G1 X142.313 Y111.187 E.93412
G1 X142.313 Y113 E.05684
G1 X142.313 Y114.813 E.05684
G1 X111.955 Y114.826 E.95186
;WIDTH:0.394382
G1 X104.045 Y114.826 E.23115
;WIDTH:0.419999
G1 X73.687 Y114.813 E.95186
G1 X73.687 Y111.187 E.11369
G1 X103.48 Y111.187 E.93412
G1 X103.48 Y113.921 E.08573
G1 X103.493 Y113.96 E.00129
G1 X103.857 Y113.921 F9000
;TYPE:External perimeter
G1 F1200
G1 X103.894 Y114.035 E.00374
G1 X104.045 Y114.11 E.00529
G1 X111.955 Y114.11 E.248
G1 X112.106 Y114.035 E.00529
G1 X112.143 Y113.921 E.00374
G1 X112.143 Y110.81 E.09756
G1 X142.69 Y110.81 E.95777
G1 X142.69 Y115.19 E.13733
G1 X73.31 Y115.19 E2.17536
G1 X73.31 Y110.81 E.13733
G1 X103.857 Y110.81 E.95777
G1 X103.857 Y113.861 E.09568
G1 X103.817 Y114.034 F9000
G1 E-3.5 F3600
;WIPE_START
G1 F7200
G1 X103.894 Y114.035 E-.08416
G1 X104.045 Y114.11 E-.0801
G1 X106.699 Y114.11 E-1.26074
;WIPE_END
G1 E-.075 F3600
G1 X102.225 Y111.677 F9000
G1 E5 F2400
;TYPE:Solid infill
;WIDTH:0.420839
G1 F1200
G1 X102.82 Y112.272 E.02641
G1 X102.82 Y112.806 E.01679
G1 X101.861 Y111.847 E.04262
G1 X101.326 Y111.847 E.01679
G1 X102.82 Y113.341 E.06638
G1 X102.82 Y113.875 E.01679
G1 X100.792 Y111.847 E.09013
G1 X100.257 Y111.847 E.01679
G1 X102.563 Y114.153 E.10248
G1 X102.029 Y114.153 E.01679
G1 X99.723 Y111.847 E.10248
G1 X99.188 Y111.847 E.01679
G1 X101.494 Y114.153 E.10248
G1 X100.96 Y114.153 E.01679
G1 X98.654 Y111.847 E.10248
G1 X98.119 Y111.847 E.01679
G1 X100.425 Y114.153 E.10248
G1 X99.891 Y114.153 E.01679
G1 X97.585 Y111.847 E.10248
G1 X97.05 Y111.847 E.01679
G1 X99.357 Y114.153 E.10248
G1 X98.822 Y114.153 E.01679
G1 X96.516 Y111.847 E.10248
G1 X95.982 Y111.847 E.01679
G1 X98.288 Y114.153 E.10248
G1 X97.753 Y114.153 E.01679
G1 X95.447 Y111.847 E.10248
G1 X94.913 Y111.847 E.01679
G1 X97.219 Y114.153 E.10248
G1 X96.684 Y114.153 E.01679
G1 X94.378 Y111.847 E.10248
G1 X93.844 Y111.847 E.01679
G1 X96.15 Y114.153 E.10248
G1 X95.615 Y114.153 E.01679
G1 X93.309 Y111.847 E.10248
G1 X92.775 Y111.847 E.01679
G1 X95.081 Y114.153 E.10248
G1 X94.546 Y114.153 E.01679
G1 X92.24 Y111.847 E.10248
G1 X91.706 Y111.847 E.01679
G1 X94.012 Y114.153 E.10248
G1 X93.478 Y114.153 E.01679
G1 X91.171 Y111.847 E.10248
