;FLAVOR:Marlin
;TIME:10467
;Filament used: 3.71971m
;Layer height: 0.16
;MINX:81.8
;MINY:49.996
;MINZ:0.12
;MAXX:153.199
;MAXY:121.392
;MAXZ:63.64
;Generated with Cura_SteamEngine 5.3.0
M140 S60
M105
M190 S60
M104 S210
M105
M109 S210
M82 ;absolute extrusion mode
; Ender 3 Custom Start G-code
G92 E0 ; Reset Extruder
G28 ; Home all axes
G1 Z2.0 F3000 ; Move Z Axis up little to prevent scratching of Heat Bed
G1 X0.1 Y20 Z0.3 F5000.0 ; Move to start position
G1 X0.1 Y200.0 Z0.3 F1500.0 E15 ; Draw the first line
G1 X0.4 Y200.0 Z0.3 F5000.0 ; Move to side a little
G1 X0.4 Y20 Z0.3 F1500.0 E30 ; Draw the second line
G92 E0 ; Reset Extruder
G1 Z2.0 F3000 ; Move Z Axis up little to prevent scratching of Heat Bed
G1 X5 Y20 Z0.3 F5000.0 ; Move over to prevent blob squish
G92 E0
G92 E0
G1 F2700 E-5
;LAYER_COUNT:398
;LAYER:0
M107
G0 F6000 X84.608 Y62.527 Z0.12
;TYPE:SKIRT
G1 F2700 E0
G1 F1200 X85.145 Y61.806 E0.01794
G1 X86.025 Y60.662 E0.04674
G1 X86.401 Y60.185 E0.05886
G1 X86.793 Y59.718 E0.07103
G1 X87.444 Y58.988 E0.09055
G1 X88.372 Y57.977 E0.11794
G1 X88.827 Y57.495 E0.13117
G1 X89.225 Y57.096 E0.14241
G1 X89.951 Y56.409 E0.16236
G1 X90.828 Y55.605 E0.1861
G1 X91.475 Y55.03 E0.20337
G1 X91.905 Y54.669 E0.21458
G1 X92.677 Y54.058 E0.23423
G1 X93.752 Y53.235 E0.26124
G1 X94.308 Y52.82 E0.27509
G1 X95.055 Y52.312 E0.29312
G1 X95.844 Y51.873 E0.31114
G1 X96.668 Y51.505 E0.32915
G1 X97.522 Y51.211 E0.34717
G1 X98.399 Y50.994 E0.3652
G1 X99.291 Y50.855 E0.38321
G1 X100.193 Y50.796 E0.40125
G1 X101.095 Y50.817 E0.41926
G1 X101.952 Y50.911 E0.43646
G1 X102.912 Y51.059 E0.45585
G1 X103.88 Y51.221 E0.47543
G1 X106.407 Y51.573 E0.52635
G1 X108.935 Y51.851 E0.5771
G1 X111.461 Y52.057 E0.62768
G1 X113.972 Y52.191 E0.67786
G1 X116.533 Y52.255 E0.72898
G1 X119.065 Y52.246 E0.77951
G1 X121.605 Y52.166 E0.83023
G1 X124.156 Y52.013 E0.88123
G1 X126.657 Y51.791 E0.93133
G1 X129.219 Y51.491 E0.98281
G1 X131.714 Y51.127 E1.03313
G1 X133.022 Y50.915 E1.05957
G1 X133.92 Y50.816 E1.0776
G1 X134.823 Y50.797 E1.09562
G1 X135.724 Y50.858 E1.11364
G1 X136.616 Y50.998 E1.13166
G1 X137.492 Y51.216 E1.14968
G1 X138.346 Y51.512 E1.16772
G1 X139.17 Y51.881 E1.18573
G1 X139.958 Y52.322 E1.20375
G1 X140.676 Y52.811 E1.22109
G1 X141.424 Y53.369 E1.23971
G1 X142.482 Y54.181 E1.26633
G1 X143.029 Y54.612 E1.28022
G1 X143.497 Y55.004 E1.29241
G1 X144.069 Y55.513 E1.30769
G1 X145.219 Y56.568 E1.33883
G1 X145.701 Y57.023 E1.35206
G1 X146.1 Y57.421 E1.36331
G1 X146.787 Y58.147 E1.38325
G1 X147.591 Y59.024 E1.40699
G1 X148.166 Y59.671 E1.42427
G1 X148.525 Y60.098 E1.4354
G1 X149.132 Y60.864 E1.45491
G1 X149.984 Y61.976 E1.48286
G1 X150.383 Y62.512 E1.4962
G1 X150.89 Y63.26 E1.51423
G1 X151.328 Y64.049 E1.53224
G1 X151.695 Y64.875 E1.55028
G1 X151.988 Y65.729 E1.56829
G1 X152.204 Y66.606 E1.58632
G1 X152.341 Y67.499 E1.60435
G1 X152.399 Y68.4 E1.62236
G1 X152.377 Y69.303 E1.64039
G1 X152.275 Y70.2 E1.65841
G1 X152.094 Y71.085 E1.67643
G1 X151.836 Y71.95 E1.69445
G1 X151.502 Y72.789 E1.71247
G1 X151.096 Y73.596 E1.7305
G1 X150.429 Y74.632 E1.75508
G1 X149.671 Y75.666 E1.78067
G1 X148.166 Y77.784 E1.83252
G1 X146.747 Y79.902 E1.8834
G1 X145.39 Y82.059 E1.93425
G1 X144.119 Y84.215 E1.9842
G1 X142.862 Y86.486 E2.036
G1 X141.724 Y88.691 E2.08551
G1 X140.599 Y91.028 E2.13727
G1 X139.587 Y93.293 E2.18678
G1 X138.599 Y95.684 E2.23841
G1 X138.041 Y97.156 E2.26982
G1 X137.59 Y98.298 E2.29433
G1 X137.088 Y99.38 E2.31813
G1 X136.801 Y99.914 E2.33023
G1 X136.338 Y100.69 E2.34826
G1 X135.904 Y101.299 E2.36318
G1 X135.642 Y101.64 E2.37177
G1 X134.787 Y102.618 E2.39769
G1 X134.429 Y102.978 E2.40782
G1 X133.764 Y103.59 E2.42586
G1 X133.218 Y104.019 E2.43971
G1 X132.894 Y104.256 E2.44773
G1 X131.897 Y104.899 E2.4714
G1 X131.572 Y105.083 E2.47885
G1 X130.592 Y105.571 E2.5007
G1 X130.092 Y105.787 E2.51157
G1 X129.156 Y106.161 E2.53169
G1 X127.699 Y106.711 E2.56276
G1 X125.34 Y107.678 E2.61364
G1 X123.032 Y108.701 E2.66402
G1 X120.746 Y109.792 E2.71457
G1 X118.471 Y110.96 E2.7656
G1 X116.271 Y112.167 E2.81568
G1 X114.047 Y113.472 E2.86714
G1 X111.902 Y114.812 E2.91761
G1 X109.814 Y116.202 E2.96767
G1 X107.283 Y118 E3.02963
G1 X106.444 Y118.616 E3.0504
G1 X105.693 Y119.117 E3.06841
G1 X104.9 Y119.551 E3.08645
G1 X104.073 Y119.912 E3.10446
G1 X103.216 Y120.199 E3.1225
G1 X102.338 Y120.409 E3.14051
G1 X101.444 Y120.54 E3.15854
G1 X100.543 Y120.592 E3.17655
G1 X99.64 Y120.564 E3.19458
G1 X98.743 Y120.456 E3.21261
G1 X97.86 Y120.27 E3.23062
G1 X96.996 Y120.005 E3.24866
G1 X96.159 Y119.666 E3.26668
G1 X95.356 Y119.254 E3.28469
G1 X94.326 Y118.582 E3.30923
G1 X93.673 Y118.097 E3.32546
G1 X92.503 Y117.199 E3.3549
G1 X91.948 Y116.76 E3.36902
G1 X91.502 Y116.386 E3.38063
G1 X90.938 Y115.885 E3.39569
G1 X89.781 Y114.824 E3.42702
G1 X89.299 Y114.369 E3.44024
G1 X88.9 Y113.971 E3.45149
G1 X88.213 Y113.245 E3.47144
G1 X87.409 Y112.368 E3.49518
G1 X86.834 Y111.721 E3.51245
G1 X86.473 Y111.291 E3.52366
G1 X85.862 Y110.519 E3.5433
G1 X85.045 Y109.452 E3.57012
G1 X84.624 Y108.888 E3.58417
G1 X84.116 Y108.142 E3.60218
G1 X83.677 Y107.353 E3.6202
G1 X83.309 Y106.528 E3.63822
G1 X83.015 Y105.674 E3.65625
G1 X82.798 Y104.797 E3.67428
G1 X82.659 Y103.905 E3.69229
G1 X82.6 Y103.004 E3.71031
G1 X82.621 Y102.101 E3.72834
G1 X82.715 Y101.245 E3.74552
G1 X82.85 Y100.362 E3.76335
G1 X83.037 Y99.239 E3.78607
G1 X83.388 Y96.7 E3.83722
G1 X83.66 Y94.195 E3.8875
G1 X83.867 Y91.631 E3.93884
G1 X83.998 Y89.116 E3.98909
G1 X84.058 Y86.581 E4.0397
G1 X84.048 Y84.013 E4.09094
G1 X83.965 Y81.508 E4.14096
G1 X83.81 Y78.96 E4.1919
G1 X83.584 Y76.44 E4.24239
G1 X83.284 Y73.898 E4.29348
G1 X82.913 Y71.381 E4.34425
G1 X82.716 Y70.155 E4.36903
G1 X82.619 Y69.257 E4.38705
G1 X82.601 Y68.354 E4.40508
G1 X82.664 Y67.453 E4.4231
G1 X82.805 Y66.561 E4.44112
G1 X83.025 Y65.685 E4.45915
G1 X83.322 Y64.832 E4.47717
G1 X83.693 Y64.009 E4.49519
G1 X84.136 Y63.221 E4.51323
G1 X84.608 Y62.527 E4.52998
G0 F6000 X84.287 Y62.288
G1 F1200 X84.828 Y61.562 E4.54804
G1 X85.711 Y60.414 E4.57695
G1 X86.095 Y59.928 E4.58931
G1 X86.494 Y59.452 E4.6017
G1 X87.149 Y58.718 E4.62133
G1 X88.081 Y57.702 E4.64885
G1 X88.544 Y57.213 E4.66229
G1 X88.95 Y56.805 E4.67377
G1 X89.681 Y56.114 E4.69385
G1 X90.562 Y55.306 E4.7177
G1 X91.218 Y54.724 E4.7352
G1 X91.657 Y54.355 E4.74665
G1 X92.434 Y53.74 E4.76642
G1 X93.513 Y52.914 E4.79354
G1 X94.083 Y52.489 E4.80773
G1 X94.861 Y51.962 E4.82648
G1 X95.65 Y51.523 E4.8445
G1 X96.538 Y51.127 E4.8639
G1 X97.426 Y50.823 E4.88264
G1 X98.337 Y50.599 E4.90136
G1 X99.265 Y50.456 E4.92009
G1 X100.202 Y50.396 E4.93883
G1 X101.139 Y50.419 E4.95754
G1 X101.996 Y50.513 E4.97474
G1 X102.978 Y50.664 E4.99457
G1 X103.946 Y50.827 E5.01416
G1 X106.451 Y51.175 E5.06463
G1 X108.975 Y51.453 E5.1153
G1 X111.494 Y51.659 E5.16574
G1 X113.982 Y51.791 E5.21546
G1 X116.542 Y51.855 E5.26656
G1 X119.052 Y51.846 E5.31665
G1 X121.592 Y51.766 E5.36737
G1 X124.132 Y51.614 E5.41815
G1 X126.61 Y51.394 E5.46779
G1 X129.161 Y51.095 E5.51905
G1 X131.656 Y50.731 E5.56937
G1 X132.978 Y50.517 E5.59609
G1 X133.876 Y50.418 E5.61412
G1 X134.815 Y50.397 E5.63286
G1 X135.786 Y50.463 E5.65229
G1 X136.713 Y50.61 E5.67102
G1 X137.623 Y50.838 E5.68974
G1 X138.477 Y51.134 E5.70777
G1 X139.365 Y51.532 E5.72719
G1 X140.183 Y51.991 E5.74591
G1 X140.915 Y52.49 E5.76359
G1 X141.668 Y53.052 E5.78234
G1 X142.73 Y53.867 E5.80906
G1 X143.286 Y54.305 E5.82318
G1 X143.763 Y54.705 E5.83561
G1 X144.339 Y55.218 E5.851
G1 X145.494 Y56.277 E5.88227
G1 X145.983 Y56.74 E5.89571
G1 X146.391 Y57.146 E5.90719
G1 X147.082 Y57.877 E5.92727
G1 X147.89 Y58.758 E5.95112
G1 X148.472 Y59.414 E5.96862
G1 X148.839 Y59.85 E5.98
G1 X149.45 Y60.621 E5.99963
G1 X150.305 Y61.737 E6.02769
G1 X150.714 Y62.288 E6.04138
G1 X151.24 Y63.066 E6.06012
G1 X151.694 Y63.887 E6.07884
G1 X152.061 Y64.713 E6.09688
G1 X152.376 Y65.633 E6.11629
G1 X152.599 Y66.545 E6.13502
G1 X152.74 Y67.473 E6.15375
G1 X152.799 Y68.41 E6.17249
G1 X152.777 Y69.313 E6.19052
G1 X152.667 Y70.28 E6.20994
G1 X152.486 Y71.165 E6.22796
G1 X152.208 Y72.098 E6.24739
G1 X151.874 Y72.937 E6.26541
G1 X151.432 Y73.813 E6.28499
G1 X150.752 Y74.868 E6.31004
G1 X149.994 Y75.902 E6.33563
G1 X148.492 Y78.016 E6.38738
G1 X147.086 Y80.115 E6.4378
G1 X145.729 Y82.272 E6.48865
G1 X144.464 Y84.418 E6.53836
G1 X143.211 Y86.68 E6.58997
G1 X142.079 Y88.874 E6.63923
G1 X140.964 Y91.191 E6.69055
G1 X139.957 Y93.446 E6.73983
G1 X138.969 Y95.837 E6.79146
G1 X138.413 Y97.303 E6.82275
G1 X137.953 Y98.466 E6.84771
G1 X137.451 Y99.548 E6.87151
G1 X137.145 Y100.119 E6.88444
G1 X136.682 Y100.895 E6.90247
G1 X136.221 Y101.543 E6.91834
G1 X135.959 Y101.884 E6.92692
G1 X135.071 Y102.9 E6.95385
G1 X134.7 Y103.272 E6.96434
G1 X134.011 Y103.905 E6.98301
G1 X133.454 Y104.342 E6.99714
G1 X133.111 Y104.592 E7.00561
G1 X132.094 Y105.247 E7.02975
G1 X131.75 Y105.441 E7.03763
G1 X130.751 Y105.938 E7.0599
G1 X130.24 Y106.158 E7.071
G1 X129.297 Y106.535 E7.09126
G1 X127.851 Y107.081 E7.12211
G1 X125.502 Y108.044 E7.17277
G1 X123.194 Y109.067 E7.22315
G1 X120.929 Y110.148 E7.27324
G1 X118.654 Y111.316 E7.32427
G1 X116.463 Y112.518 E7.37414
G1 X114.249 Y113.817 E7.42537
G1 X112.124 Y115.145 E7.47538
G1 X110.036 Y116.535 E7.52543
G1 X107.515 Y118.326 E7.58715
G1 X106.666 Y118.949 E7.60816
G1 X105.915 Y119.45 E7.62618
G1 X105.06 Y119.918 E7.64563
G1 X104.233 Y120.279 E7.66363
G1 X103.309 Y120.588 E7.68308
G1 X102.396 Y120.805 E7.70181
G1 X101.502 Y120.936 E7.71984
G1 X100.531 Y120.992 E7.73925
G1 X99.628 Y120.964 E7.75728
G1 X98.695 Y120.853 E7.77603
G1 X97.743 Y120.652 E7.79544
G1 X96.846 Y120.376 E7.81417
G1 X95.976 Y120.022 E7.83292
G1 X95.137 Y119.589 E7.85176
G1 X94.087 Y118.903 E7.87679
G1 X93.429 Y118.414 E7.89315
G1 X92.255 Y117.513 E7.92268
G1 X91.691 Y117.066 E7.93704
G1 X91.236 Y116.685 E7.94888
G1 X90.668 Y116.18 E7.96405
G1 X89.506 Y115.115 E7.99551
G1 X89.017 Y114.652 E8.00895
G1 X88.609 Y114.246 E8.02043
G1 X87.918 Y113.515 E8.04051
G1 X87.11 Y112.634 E8.06436
G1 X86.528 Y111.978 E8.08186
G1 X86.159 Y111.539 E8.09331
G1 X85.544 Y110.762 E8.11308
G1 X84.724 Y109.691 E8.14
G1 X84.293 Y109.113 E8.15439
G1 X83.766 Y108.336 E8.17312
G1 X83.327 Y107.547 E8.19114
G1 X82.931 Y106.658 E8.21056
G1 X82.627 Y105.77 E8.22929
G1 X82.403 Y104.859 E8.24802
G1 X82.26 Y103.931 E8.26675
G1 X82.2 Y102.995 E8.28547
G1 X82.223 Y102.057 E8.3042
G1 X82.317 Y101.201 E8.32138
G1 X82.455 Y100.296 E8.33965
G1 X82.643 Y99.173 E8.36237
G1 X82.99 Y96.657 E8.41306
G1 X83.262 Y94.152 E8.46334
G1 X83.469 Y91.599 E8.51446
G1 X83.598 Y89.107 E8.56425
G1 X83.658 Y86.572 E8.61486
G1 X83.648 Y84.015 E8.66588
G1 X83.565 Y81.521 E8.71568
G1 X83.411 Y78.984 E8.7664
G1 X83.186 Y76.476 E8.81665
G1 X82.888 Y73.956 E8.86729
G1 X82.517 Y71.439 E8.91807
G1 X82.318 Y70.198 E8.94315
G1 X82.221 Y69.3 E8.96117
G1 X82.202 Y68.326 E8.98061
G1 X82.265 Y67.425 E8.99864
G1 X82.417 Y66.464 E9.01805
G1 X82.647 Y65.553 E9.03681
G1 X82.944 Y64.7 E9.05483
G1 X83.344 Y63.813 E9.07425
G1 X83.787 Y63.025 E9.09229
G1 X84.287 Y62.288 E9.11006
G0 F6000 X83.966 Y62.049
G1 F1200 X84.511 Y61.318 E9.12826
G1 X85.397 Y60.166 E9.15726
G1 X85.788 Y59.671 E9.16985
G1 X86.187 Y59.195 E9.18224
G1 X86.854 Y58.448 E9.20223
G1 X87.791 Y57.427 E9.22988
G1 X88.26 Y56.931 E9.2435
G1 X88.675 Y56.514 E9.25525
G1 X89.411 Y55.819 E9.27545
G1 X90.297 Y55.007 E9.29943
G1 X90.961 Y54.418 E9.31714
G1 X91.409 Y54.041 E9.32883
G1 X92.191 Y53.422 E9.34873
G1 X93.274 Y52.593 E9.37595
G1 X93.859 Y52.158 E9.3905
G1 X94.667 Y51.612 E9.40996
G1 X95.456 Y51.173 E9.42797
G1 X96.408 Y50.749 E9.44877
G1 X97.33 Y50.435 E9.46821
G1 X98.276 Y50.204 E9.48764
G1 X99.239 Y50.057 E9.50708
G1 X100.212 Y49.996 E9.52654
G1 X101.183 Y50.021 E9.54592
G1 X102.04 Y50.115 E9.56313
G1 X103.044 Y50.27 E9.5834
G1 X104.001 Y50.431 E9.60277
G1 X106.495 Y50.777 E9.65301
G1 X109.015 Y51.055 E9.70361
G1 X111.527 Y51.261 E9.75391
G1 X113.992 Y51.391 E9.80317
G1 X116.551 Y51.455 E9.85425
G1 X119.039 Y51.446 E9.9039
G1 X121.579 Y51.366 E9.95461
G1 X124.108 Y51.215 E10.00517
G1 X126.563 Y50.997 E10.05436
G1 X129.103 Y50.699 E10.10539
G1 X131.598 Y50.335 E10.15571
G1 X132.934 Y50.119 E10.18272
G1 X133.832 Y50.02 E10.20075
G1 X134.806 Y49.997 E10.22019
G1 X135.849 Y50.068 E10.24105
G1 X136.81 Y50.222 E10.26048
G1 X137.754 Y50.46 E10.2799
G1 X138.641 Y50.769 E10.29865
G1 X139.561 Y51.183 E10.31878
G1 X140.408 Y51.66 E10.33818
G1 X141.154 Y52.169 E10.3562
G1 X141.912 Y52.735 E10.37508
G1 X142.978 Y53.553 E10.4019
G1 X143.543 Y53.999 E10.41626
G1 X144.029 Y54.406 E10.42891
G1 X144.609 Y54.923 E10.44442
G1 X145.769 Y55.987 E10.47583
G1 X146.265 Y56.456 E10.48945
G1 X146.682 Y56.871 E10.50119
G1 X147.377 Y57.607 E10.52139
G1 X148.189 Y58.493 E10.54538
G1 X148.778 Y59.156 E10.56307
G1 X149.145 Y59.592 E10.57445
G1 X149.768 Y60.378 E10.59446
G1 X150.626 Y61.499 E10.62263
G1 X151.045 Y62.064 E10.63667
G1 X151.59 Y62.872 E10.65612
G1 X152.06 Y63.725 E10.67556
G1 X152.427 Y64.551 E10.69359
G1 X152.765 Y65.538 E10.71441
G1 X152.988 Y66.45 E10.73315
G1 X153.139 Y67.448 E10.75329
G1 X153.199 Y68.42 E10.77273
G1 X153.177 Y69.323 E10.79075
G1 X153.059 Y70.36 E10.81158
G1 X152.878 Y71.245 E10.82961
G1 X152.58 Y72.246 E10.85045
G1 X152.246 Y73.085 E10.86847
G1 X151.768 Y74.03 E10.8896
G1 X151.075 Y75.104 E10.91511
G1 X150.317 Y76.138 E10.9407
G1 X148.818 Y78.248 E10.99235
G1 X147.425 Y80.328 E11.04231
G1 X146.068 Y82.485 E11.09316
G1 X144.809 Y84.621 E11.14264
G1 X143.56 Y86.874 E11.19405
G1 X142.434 Y89.057 E11.24307
G1 X141.329 Y91.354 E11.29393
G1 X140.327 Y93.599 E11.34299
G1 X139.339 Y95.99 E11.39462
G1 X138.785 Y97.45 E11.42579
G1 X138.316 Y98.634 E11.4512
G1 X137.804 Y99.737 E11.47547
G1 X137.489 Y100.324 E11.48876
G1 X137.026 Y101.1 E11.50679
G1 X136.538 Y101.787 E11.52361
G1 X136.276 Y102.128 E11.53219
G1 X135.372 Y103.163 E11.55962
G1 X134.971 Y103.567 E11.57098
G1 X134.282 Y104.2 E11.58965
G1 X133.69 Y104.665 E11.60467
G1 X133.328 Y104.928 E11.6136
G1 X132.311 Y105.583 E11.63774
G1 X131.928 Y105.799 E11.64651
G1 X130.909 Y106.305 E11.66922
G1 X130.388 Y106.529 E11.68054
G1 X129.438 Y106.909 E11.70096
G1 X128.003 Y107.451 E11.73157
G1 X125.664 Y108.41 E11.78202
G1 X123.356 Y109.433 E11.8324
G1 X121.112 Y110.504 E11.88202
G1 X118.837 Y111.672 E11.93305
G1 X116.655 Y112.869 E11.98272
G1 X114.451 Y114.162 E12.03371
G1 X112.346 Y115.478 E12.08325
G1 X110.258 Y116.868 E12.13331
G1 X107.747 Y118.652 E12.19478
G1 X106.888 Y119.282 E12.21603
G1 X106.137 Y119.783 E12.23405
G1 X105.22 Y120.285 E12.25491
G1 X104.393 Y120.646 E12.27292
G1 X103.401 Y120.977 E12.29379
G1 X102.454 Y121.201 E12.31321
G1 X101.56 Y121.332 E12.33124
G1 X100.519 Y121.392 E12.35205
G1 X99.616 Y121.364 E12.37008
G1 X98.612 Y121.244 E12.39026
G1 X97.625 Y121.034 E12.41039
G1 X96.695 Y120.747 E12.42982
G1 X95.825 Y120.393 E12.44856
G1 X94.918 Y119.924 E12.46894
G1 X93.848 Y119.224 E12.49446
G1 X93.185 Y118.731 E12.51094
G1 X92.007 Y117.826 E12.54059
G1 X91.434 Y117.373 E12.55516
G1 X90.97 Y116.984 E12.56725
G1 X90.398 Y116.475 E12.58253
G1 X89.231 Y115.405 E12.61412
G1 X88.735 Y114.936 E12.62775
G1 X88.318 Y114.521 E12.63949
G1 X87.623 Y113.785 E12.65969
G1 X86.811 Y112.899 E12.68367
G1 X86.222 Y112.235 E12.70138
G1 X85.845 Y111.787 E12.71307
G1 X85.226 Y111.005 E12.73297
G1 X84.403 Y109.93 E12.75999
G1 X83.962 Y109.338 E12.77472
G1 X83.416 Y108.53 E12.79418
G1 X82.977 Y107.741 E12.8122
G1 X82.553 Y106.788 E12.83302
G1 X82.239 Y105.866 E12.85245
G1 X82.008 Y104.92 E12.87189
G1 X81.861 Y103.957 E12.89133
G1 X81.8 Y102.985 E12.91076
G1 X81.825 Y102.013 E12.93017
G1 X81.919 Y101.157 E12.94735
G1 X82.06 Y100.23 E12.96606
G1 X82.249 Y99.107 E12.98879
G1 X82.592 Y96.614 E13.03901
G1 X82.864 Y94.109 E13.08929
G1 X83.071 Y91.567 E13.14019
G1 X83.198 Y89.098 E13.18952
G1 X83.258 Y86.563 E13.24013
G1 X83.248 Y84.017 E13.29094
G1 X83.165 Y81.534 E13.34051
G1 X83.012 Y79.008 E13.39102
G1 X82.788 Y76.512 E13.44103
G1 X82.492 Y74.014 E13.49123
G1 X82.121 Y71.497 E13.542
G1 X81.92 Y70.241 E13.56738
G1 X81.823 Y69.343 E13.58541
G1 X81.803 Y68.298 E13.60626
G1 X81.866 Y67.397 E13.62429
G1 X82.029 Y66.366 E13.64512
G1 X82.269 Y65.421 E13.66458
